svg/git-merge-queue.svg

<?xml version="1.0" encoding="UTF-8"?>
<svg xmlns="http://www.w3.org/2000/svg" xmlns:xlink="http://www.w3.org/1999/xlink" width="32" height="32" viewBox="0 0 32 32">
<path fill-rule="nonzero" fill="rgb(0%, 0%, 0%)" fill-opacity="1" d="M 7.667969 8.667969 C 6.378906 8.667969 5.332031 7.625 5.332031 6.335938 C 5.332031 5.046875 6.375 4 7.664062 4 C 8.953125 4 10 5.042969 10 6.332031 C 10 7.621094 8.957031 8.667969 7.667969 8.667969 M 12.667969 11.667969 C 12.667969 10.378906 13.710938 9.332031 15 9.332031 C 16.289062 9.332031 17.335938 10.375 17.335938 11.664062 C 17.335938 12.953125 16.292969 14 15.003906 14 C 13.714844 14 12.667969 12.957031 12.667969 11.667969 M 7.667969 30 C 5.472656 29.996094 3.625 28.347656 3.371094 26.167969 C 3.117188 23.984375 4.535156 21.960938 6.671875 21.449219 C 6.667969 21.410156 6.667969 21.371094 6.667969 21.332031 L 6.667969 14.667969 C 6.667969 14.117188 7.117188 13.667969 7.667969 13.667969 C 8.21875 13.667969 8.667969 14.117188 8.667969 14.667969 L 8.667969 21.332031 C 8.667969 21.371094 8.664062 21.410156 8.660156 21.449219 C 10.792969 21.960938 12.207031 23.984375 11.953125 26.164062 C 11.699219 28.339844 9.859375 29.988281 7.667969 30 M 5.332031 25.667969 C 5.332031 26.957031 6.378906 28 7.667969 28 C 8.957031 28 10 26.953125 10 25.664062 C 10 24.375 8.953125 23.332031 7.664062 23.332031 C 6.375 23.332031 5.332031 24.378906 5.332031 25.667969 M 20 17 C 20 14.609375 21.941406 12.667969 24.332031 12.667969 C 25.902344 12.632812 27.367188 13.453125 28.160156 14.808594 C 28.957031 16.160156 28.957031 17.839844 28.160156 19.195312 C 27.367188 20.546875 25.902344 21.367188 24.332031 21.332031 C 21.941406 21.332031 20 19.390625 20 17 M 24.332031 19.332031 C 25.621094 19.332031 26.667969 18.289062 26.667969 17 C 26.667969 15.710938 25.625 14.664062 24.335938 14.664062 C 23.046875 14.664062 22 15.707031 22 16.996094 C 22 18.285156 23.042969 19.332031 24.332031 19.332031 "/>
</svg>

<svg role="img" viewBox="0 0 32 32" height="32" width="32" xmlns="http://www.w3.org/2000/svg"><path d="M7.668 8.668A2.334 2.334 0 1 1 7.664 4a2.334 2.334 0 0 1 .004 4.668m5 3a2.334 2.334 0 1 1 4.668-.004 2.334 2.334 0 0 1-4.668.004M7.668 30a4.336 4.336 0 0 1-4.297-3.832 4.336 4.336 0 0 1 3.3-4.719c-.003-.039-.003-.078-.003-.117v-6.664c0-.55.45-1 1-1s1 .45 1 1v6.664c0 .04-.004.078-.008.117a4.332 4.332 0 0 1 3.293 4.715A4.34 4.34 0 0 1 7.668 30m-2.336-4.332A2.334 2.334 0 1 0 10 25.664a2.334 2.334 0 0 0-4.668.004M20 17a4.334 4.334 0 0 1 4.332-4.332 4.324 4.324 0 0 1 3.828 2.14 4.324 4.324 0 0 1 0 4.387 4.328 4.328 0 0 1-3.828 2.137A4.334 4.334 0 0 1 20 17m4.332 2.332a2.334 2.334 0 1 0 .004-4.668 2.334 2.334 0 0 0-.004 4.668"/></svg>
